teeny/solid/calendar.svg

<svg width="15" height="15" viewBox="0 0 15 15" fill="none" xmlns="http://www.w3.org/2000/svg">
<path d="M12 2H13.5C14.3284 2 15 2.67157 15 3.5V13.5C15 14.3284 14.3284 15 13.5 15H1.5C0.671573 15 0 14.3284 0 13.5V3.5C0 2.67157 0.671573 2 1.5 2H3V0H4V2H11V0H12V2Z" fill="black"/>
</svg>

<svg viewBox="0 0 15 15" xmlns="http://www.w3.org/2000/svg"><path d="M12 2h1.5c.82 0 1.5.67 1.5 1.5v10c0 .82-.68 1.5-1.5 1.5h-12C.67 15 0 14.32 0 13.5v-10C0 2.67.67 2 1.5 2H3V0h1v2h7V0h1v2Z"/></svg>
